X:1
T:Auf den Bergen
T: Franz Abt
T:Auf den Bergen 
T:CPDL   —   Creative Commons Attribution Non Commercial 3.0
T:CPDL   —   Creative Commons Attribution Non Commercial 3.0
T:CPDL   —   Creative Commons Attribution Non Commercial 3.0
T:CPDL   —   Creative Commons Attribution Non Commercial 3.0
C:Franz Abt
Z:CPDL   —   Creative Commons Attribution Non Commercial 3.0
%%score [ 1 ( 2 3 ) ( 4 5 ) ]
L:1/8
Q:1/4=90
M:3/4
K:G
V:1 treble-8 nm="Tenor\n1"
V:2 treble-8 nm="Tenor\n2"
V:3 treble-8 
V:4 bass nm="Bass"
V:5 bass 
V:1
!f!"^Allegro moderato" d>d |!<(! g3 B!<)! (3cde |!<(! d4!<)! (3dBd |!>(! f3 e!>)! d>c | B4 | %5
w: 1\-3. Auf den|frei- en lich- * ten|Höh'n, auf _ den|Ber- gen ist es|schön,|
w: |||||
w: |||||
!mf! B>_B | A3 ^c f>e | d4 (3d^cd | e2- (3eAf (3eAa | f4 | (3d^cB | A3 ^c f>e | d4 (3de^e | %13
w: 1. wo die|ries'- gen Fir- nen|glüh'n, wo * die|Al- * * pen- ro- * sen|blüh'n,|wo * das|Al- pen- horn er-|schallt und * im|
w: 2. bei der|Her- den Glo- cken-|klang, bei * der|Senn- * * en fro- * hem|Sang,|wo * der|wil- de Was- ser-|fall stürzt * mit|
w: 3. wo das|Herz so voll, so|warm lässt * der|Er- * * de Sorg * und|Harm,|wo * das|Au- ge froh ent-|zückt auf * zum|
 (3fdf !>!a3 ^c | d4 |!mf! (3:2:2d2 d | g3 d (3Bcd | e4 a>g | f3 A f>e | d4 (3G"^cresc."Bd | %20
w: E- * cho wi- der-|hallt.|1\-3. Auf den|frei- en, lich- * ten|Höh'n, auf den|Ber- gen ist es|schön, auf _ den|
w: Don- * nern in das|Tal.||||||
w: Him- * mel dank- bar|blickt.||||||
 g3 B cd | e4!ff! (3age | !>!e3 d!>(! d>F!>)! | G2 z2"^Solo"!mf! G>B |"^Solo" d2- (3dAe (3dAe | %25
w: frei- en, lich- ten|Höh'n, auf _ den|Ber- gen ist es|schön, auf den|frei- * * en, lich- * ten|
w: |||||
w: |||||
 (3(dBd g2) f>e | d3 ^d (3fec | B4"^Chor"!f! G>B | d2- (3dAe (3dAe | %29
w: Höh'n, _ _ _ auf den|Ber- gen ist _ es|schön, auf den|frei- * * en, lich- * ten|
w: ||||
w: ||||
!<(! (3:2:2(d2!<)!!>(! g!>)!!pp! !breath!!fermata!b2)!mf![Q:1/4=80]"^poco ritardando" a>g | %30
w: Höh'n, _ _ auf den|
w: |
w: |
 !>!g3!<(! A (3fef!<)! | !fermata!g4 |] %32
w: Ber- gen ist _ es|schön.|
w: ||
w: ||
V:2
!f! A>d |!<(! d3 B!<)! (3cBc |!<(! B4!<)! (3BGB |!>(! d3 c!>)! A>F | G4 | z2 |!pp! G>G G2 ^c2 | %7
w: 1\-3. Auf den|frei- en lich- * ten|Höh'n, auf _ den|Ber- gen ist es|schön,||1. wo die ries'- gen|
w: ||||||2. bei der Her- den|
w: ||||||3. wo das Herz so|
 d>A F2 A>A | ^c>c c2 c2 | d>d A2 | (3:2:2A2 F | G>G G2 !>!^c2 | B>B B2 (3:2:2B2 d | %13
w: Fir- nen glüh'n, wo die|fri- schen Al- pen-|ro- sen blüh'n,|wo das|Al- pen- horn so|froh er- schallt und im|
w: Glo- cken- klang, bei der|mun- tern Senn- en|fro- hem Sang,|wo der|brau- send wil- de|Was- ser- fall stürzt mit|
w: voll, so warm lässt der|Er- de Pla- gen,|Sorg und Harm,|wo das|Au- ge froh und|hoch ent- zückt auf zum|
 (3d"^cresc."Ad !>!e3 A | A>A A2 |!mf! (3Ad=c | B3 B (3GAB | c4 e>e | c3 A c>c | %19
w: E- cho, im E- cho|wi- der- hallt.|1\-3. Auf _ den|frei- en, lich- * ten|Höh'n, auf den|Ber- gen ist es|
w: Don- nern, mit Don- nern|in das Tal.|||||
w: Him- mel, zum Him- mel|dank- bar blickt.|||||
 B4 (3G"^cresc."BB | d3 B cB | A4!ff! (3:2:2e2 G | !>!G3 B!>(! A>c!>)! | x2!pp! B>B B>B | %24
w: schön, auf _ den|frei- en, lich- ten|Höh'n, auf den|Ber- gen ist es|auf den frei- en,|
w: |||||
w: |||||
"^T1""^T2" c4 c2 | B2 B>B B>B | c4 A2 | x4!f! G>B | c>c c2 c2 | %29
w: lich- ten|Höh'n, auf den Ber- gen|ist es|auf den|frei- en, lich- ten|
w: |||||
w: |||||
!<(! (3(BG!<)!!>(!d!>)!!pp! !breath!!fermata!g2)!mf! d>d | !>!e3!<(! A (3:2:2c2 c!<)! | %31
w: Höh'n, _ _ _ auf den|Ber- gen ist es|
w: ||
w: ||
 !fermata!B4 |] %32
w: schön.|
w: |
w: |
V:3
 x2 | x6 | x6 | x6 | x4 | x2 | x6 | x6 | x6 | x4 | x2 | x6 | x6 | x6 | x4 | x2 | x6 | x6 | x6 | %19
w: |||||||||||||||||||
 x6 | x6 | x6 | x6 | B2 G>G G>G | A4 A2 | G2 G>G G>G | F4 F2 | G4 x2 | x6 | x6 | x6 | x4 |] %32
w: ||||schön, * * * *||||schön,|||||
V:4
!f! F,>C |!<(! B,3 G,!<)! (3:2:2G,2 G, |!<(! G,4!<)! (3:2:2G,2 G, |!>(! G,3 G,!>)! F,>D, | D,4 | %5
 z2 |!pp! ^C,>C, C,2 G,2 | F,>F, D,2 F,>F, | G,>G, G,2 G,2 | F,>A, F,2 | (3:2:2F,2 D, | %11
 ^C,>C, E,2 !>!G,2 | F,>F, F,2 (3F,G,^G, | (3A,"^cresc."F,A, !>!^C3 G, | F,>F, F,2 |!mf! (3F,G,A, | %16
 B,3 G, (3:2:2G,2 G, | G,4 C>C | A,3 F, A,>A, | B,4 (3G,"^cresc."D,G, | B,3 G, G,G, | %21
 G,4!ff! (3G,A,^A, | !>!B,3 G,!>(! F,>D,!>)! | D,2!pp! D,>D, D,>D, |"^B1""^B2" F,4 F,2 | %25
 D,2 D,>D, D,>D, | D,4 D,2 | D,4 G,>G, | A,>A, A,2 F,2 | %29
!<(! (3(G,B,!<)!!>(!G,!>)!!pp! !breath!!fermata![B,D]2)!mf! C>B, | !>!A,3!<(! E, (3A,G,A,!<)! | %31
 !fermata!G,4 |] %32
V:5
 D,>F, | G,3 =F, (3E,D,C, | G,,4 (3:2:2G,,2 G,, | C,3 C, D,>D, | G,,4 | x2 | A,,>A,, A,,2 A,,2 | %7
w: |||||||
 A,,>A,, A,,2 A,,>A,, | A,,>A,, A,,2 A,,2 | D,>D, D,2 | (3:2:2D,2 D, | A,,>A,, A,,2 ^A,,2 | %12
w: |||||
 B,,>B,, B,,2 (3:2:2B,,2 B,, | (3A,,F,D, A,,3 A,, | D,>D, D,2 | (3D,E,F, | G,3 G, (3:2:2G,,2 G,, | %17
w: |||||
 C,4 A,,>A,, | D,3 D, D,>F, | G,4 (3G,D,B,, | G,,3 =F, E,D, | ^C,4 (3:2:2C,2 C, | D,3 D, D,>D, | %23
w: ||||||
 G,,2 G,,>G,, G,,>G,, | D,4 D,2 | G,,2 G,,>G,, G,,>G,, | A,,4 D,2 | G,,2!f! D,>B,, B,>G, | %28
w: ||||schön, auf den frei- en,|
 F,>F, F,2 D,2 | (3(G,,D,B,, G,2) G,>G, | C,3 C, (3:2:2D,2 D, | G,,4 |] %32
w: ||||

